svgs/banxo.svg

<svg width="192" height="192" viewBox="0 0 192 192" fill="none" xmlns="http://www.w3.org/2000/svg">
<path d="M21 114H69M43 74H91M30 94H78" stroke="#000" stroke-width="10" stroke-linecap="round" stroke-linejoin="round"/>
<path d="M128.067 65.6475L65.195 170C40.2458 141.905 34.5628 112.305 63.1991 77.6881C74.2246 64.3599 113.098 33.539 146.03 22M147.028 114.814L161 100.766L146.03 84.7119M99.1259 170H151.02M116.091 144.915H143.037" stroke="#000" stroke-width="12" stroke-linecap="round" stroke-linejoin="round"/>
<path d="M131 105C132.657 105 134 103.657 134 102C134 100.343 132.657 99 131 99C129.343 99 128 100.343 128 102C128 103.657 129.343 105 131 105Z" stroke="#000" stroke-width="6" stroke-linejoin="round"/>
</svg>

<svg xmlns="http://www.w3.org/2000/svg" width="192" height="192" fill="none"><path stroke="#000" stroke-linecap="round" stroke-linejoin="round" stroke-width="10" d="M21 114h48M43 74h48M30 94h48"/><path stroke="#000" stroke-linecap="round" stroke-linejoin="round" stroke-width="12" d="M128.067 65.648 65.195 170c-24.95-28.095-30.632-57.695-1.996-92.312C74.225 64.36 113.098 33.54 146.03 22m.998 92.814L161 100.766l-14.97-16.054M99.126 170h51.894m-34.929-25.085h26.946"/><path stroke="#000" stroke-linejoin="round" stroke-width="6" d="M131 105a3 3 0 1 0 0-6 3 3 0 0 0 0 6Z"/></svg>
